KINDER
CUT[STORCH STORCH STANE FLIEG UEBER HANE]
REG[Europa, Mitteleuropa, Deutschland, Odenwald, Alsbach]
KEY[K0749  08  F 2/4]
MEL[  5566  5530  5566  5530
    5566  5530  5566  5530
    5566  5530  5566  5530
    5566  5530  5566  5530
    5_4_  3__ //] >>
FCT[Kinder -, Tier - Lied]
